public/customer/2.svg

<svg width="251" height="132" viewBox="0 0 251 132" fill="none" xmlns="http://www.w3.org/2000/svg">
<path opacity="0.7" fill-rule="evenodd" clip-rule="evenodd" d="M41.3975 66.0968H62.071L82.7445 35.7883H62.071L41.3975 66.0968ZM82.7431 96.4058H62.0693L41.3958 66.0974H62.0693L82.7431 96.4058Z" fill="white" fill-opacity="0.3"/>
<path d="M57.0611 65.8085H77.7345L57.0611 35.5H36.3876L57.0611 65.8085Z" fill="white" fill-opacity="0.6"/>
<path d="M57.06 96.4059H36.3865L57.06 66.0971H77.7331L57.06 96.4059Z" fill="white" fill-opacity="0.6"/>
<path d="M92.9774 65.8129C92.9774 63.0765 93.6092 60.6323 94.8721 58.4803C96.1622 56.3017 97.9057 54.6147 100.103 53.4192C102.327 52.1971 104.811 51.586 107.557 51.586C110.77 51.586 113.584 52.383 116 53.9771C118.416 55.5712 120.105 57.7763 121.066 60.5924H114.435C113.776 59.2641 112.843 58.2678 111.635 57.6035C110.454 56.9394 109.081 56.6072 107.516 56.6072C105.841 56.6072 104.345 56.9925 103.027 57.763C101.736 58.5069 100.72 59.5696 99.9788 60.9511C99.2653 62.3326 98.9079 63.9532 98.9079 65.8129C98.9079 67.6461 99.2653 69.2668 99.9788 70.6751C100.72 72.0565 101.736 73.1322 103.027 73.903C104.345 74.6467 105.841 75.0189 107.516 75.0189C109.081 75.0189 110.454 74.6862 111.635 74.0222C112.843 73.3319 113.776 72.322 114.435 70.994H121.066C120.105 73.8365 118.416 76.0544 116 77.6486C113.611 79.2165 110.797 80.0004 107.557 80.0004C104.811 80.0004 102.327 79.4022 100.103 78.2066C97.9057 76.9846 96.1622 75.2976 94.8721 73.1454C93.6092 70.994 92.9774 68.5494 92.9774 65.8129Z" fill="white" fill-opacity="0.6"/>
<path d="M134.475 80.1196C132.279 80.1196 130.302 79.6545 128.545 78.725C126.788 77.7685 125.401 76.4266 124.385 74.7C123.396 72.9728 122.902 70.9801 122.902 68.7221C122.902 66.4638 123.41 64.4712 124.426 62.7444C125.469 61.0175 126.884 59.6891 128.668 58.7592C130.453 57.8028 132.444 57.3246 134.64 57.3246C136.837 57.3246 138.828 57.8028 140.612 58.7592C142.397 59.6891 143.798 61.0175 144.813 62.7444C145.856 64.4712 146.379 66.4638 146.379 68.7221C146.379 70.9801 145.843 72.9728 144.772 74.7C143.729 76.4266 142.301 77.7685 140.489 78.725C138.704 79.6545 136.699 80.1196 134.475 80.1196ZM134.475 75.258C135.519 75.258 136.494 75.0189 137.4 74.5406C138.333 74.0353 139.075 73.2916 139.624 72.3088C140.173 71.3259 140.447 70.1303 140.447 68.7221C140.447 66.6232 139.871 65.0159 138.717 63.9C137.592 62.7576 136.205 62.1864 134.558 62.1864C132.911 62.1864 131.524 62.7576 130.398 63.9C129.3 65.0159 128.75 66.6232 128.75 68.7221C128.75 70.8206 129.286 72.4418 130.357 73.5841C131.455 74.7 132.828 75.258 134.475 75.258Z" fill="white" fill-opacity="0.6"/>
<path d="M154.727 75.3377H161.02V79.7612H148.96V50.2707H154.727V75.3377Z" fill="white" fill-opacity="0.6"/>
<path d="M162.557 68.6422C162.557 66.4106 163.01 64.4312 163.916 62.7044C164.85 60.9775 166.099 59.6491 167.664 58.7192C169.257 57.7893 171.028 57.3245 172.977 57.3245C174.679 57.3245 176.162 57.6565 177.425 58.3207C178.716 58.9849 179.745 59.8218 180.514 60.8314V57.6831H186.321V79.7605H180.514V76.5327C179.772 77.5689 178.743 78.4325 177.425 79.1229C176.135 79.7876 174.639 80.1196 172.936 80.1196C171.014 80.1196 169.257 79.6413 167.664 78.6848C166.099 77.7283 164.85 76.3864 163.916 74.6599C163.01 72.9063 162.557 70.9004 162.557 68.6422ZM180.514 68.722C180.514 67.367 180.24 66.2113 179.69 65.2549C179.141 64.2719 178.4 63.528 177.467 63.0232C176.533 62.4918 175.53 62.2262 174.459 62.2262C173.389 62.2262 172.401 62.4786 171.495 62.9833C170.588 63.4881 169.847 64.232 169.27 65.215C168.721 66.1715 168.447 67.3139 168.447 68.6422C168.447 69.9709 168.721 71.1395 169.27 72.1494C169.847 73.1322 170.588 73.8891 171.495 74.4207C172.428 74.9524 173.416 75.2178 174.459 75.2178C175.53 75.2178 176.533 74.9655 177.467 74.4602C178.4 73.9293 179.141 73.1856 179.69 72.2291C180.24 71.2455 180.514 70.0769 180.514 68.722Z" fill="white" fill-opacity="0.6"/>
<path d="M196.071 60.9111C196.813 59.8483 197.828 58.9849 199.119 58.3207C200.437 57.6565 201.934 57.3244 203.608 57.3244C205.558 57.3244 207.315 57.7893 208.88 58.7192C210.473 59.6491 211.722 60.9775 212.629 62.7044C213.562 64.4047 214.028 66.384 214.028 68.6422C214.028 70.9003 213.562 72.9062 212.629 74.6598C211.722 76.3864 210.473 77.7283 208.88 78.6848C207.315 79.6413 205.558 80.1196 203.608 80.1196C201.906 80.1196 200.409 79.8007 199.119 79.163C197.856 78.499 196.841 77.6486 196.071 76.6124V79.7605H190.305V50.2707H196.071V60.9111ZM208.139 68.6422C208.139 67.3139 207.851 66.1715 207.274 65.215C206.724 64.232 205.984 63.4881 205.05 62.9833C204.144 62.4786 203.156 62.2261 202.085 62.2261C201.041 62.2261 200.053 62.4918 199.119 63.0232C198.213 63.528 197.472 64.2719 196.895 65.2549C196.346 66.2379 196.071 67.3936 196.071 68.7219C196.071 70.0506 196.346 71.206 196.895 72.1889C197.472 73.1717 198.213 73.9293 199.119 74.4602C200.053 74.9655 201.041 75.2178 202.085 75.2178C203.156 75.2178 204.144 74.9523 205.05 74.4207C205.984 73.8891 206.724 73.1322 207.274 72.1494C207.851 71.1658 208.139 69.9972 208.139 68.6422Z" fill="white" fill-opacity="0.6"/>
</svg>

<svg xmlns="http://www.w3.org/2000/svg" width="251" height="132" fill="none"><path fill="#fff" fill-opacity=".3" fill-rule="evenodd" d="M41.398 66.097H62.07l20.674-30.309H62.07L41.398 66.097Zm41.345 30.309H62.07L41.396 66.097h20.673l20.674 30.309Z" clip-rule="evenodd" opacity=".7"/><path fill="#fff" fill-opacity=".6" d="M57.061 65.808h20.673L57.061 35.5H36.388L57.06 65.808ZM57.06 96.406H36.386L57.06 66.097h20.673L57.06 96.406ZM92.977 65.813c0-2.736.632-5.18 1.895-7.333 1.29-2.178 3.034-3.865 5.231-5.06 2.224-1.223 4.708-1.834 7.454-1.834 3.213 0 6.027.797 8.443 2.391 2.416 1.594 4.105 3.8 5.066 6.615h-6.631c-.659-1.328-1.592-2.324-2.8-2.989-1.181-.664-2.554-.996-4.119-.996-1.675 0-3.171.386-4.489 1.156-1.291.744-2.307 1.807-3.048 3.188-.714 1.382-1.071 3.002-1.071 4.862 0 1.833.357 3.454 1.07 4.862.742 1.382 1.758 2.457 3.049 3.228 1.318.744 2.814 1.116 4.489 1.116 1.565 0 2.938-.333 4.119-.997 1.208-.69 2.141-1.7 2.8-3.028h6.631c-.961 2.843-2.65 5.06-5.066 6.655-2.389 1.567-5.203 2.351-8.443 2.351-2.746 0-5.23-.598-7.454-1.793a13.835 13.835 0 0 1-5.23-5.062c-1.264-2.151-1.896-4.596-1.896-7.332ZM134.475 80.12c-2.196 0-4.173-.466-5.93-1.395a10.651 10.651 0 0 1-4.16-4.025c-.989-1.727-1.483-3.72-1.483-5.978 0-2.258.508-4.25 1.524-5.978a10.58 10.58 0 0 1 4.242-3.985c1.785-.956 3.776-1.434 5.972-1.434 2.197 0 4.188.478 5.972 1.434a10.294 10.294 0 0 1 4.201 3.985c1.043 1.727 1.566 3.72 1.566 5.978 0 2.258-.536 4.25-1.607 5.978-1.043 1.727-2.471 3.069-4.283 4.025-1.785.93-3.79 1.395-6.014 1.395Zm0-4.862c1.044 0 2.019-.24 2.925-.717.933-.506 1.675-1.25 2.224-2.232.549-.983.823-2.179.823-3.587 0-2.099-.576-3.706-1.73-4.822-1.125-1.142-2.512-1.714-4.159-1.714-1.647 0-3.034.572-4.16 1.714-1.098 1.116-1.648 2.723-1.648 4.822s.536 3.72 1.607 4.862c1.098 1.116 2.471 1.674 4.118 1.674ZM154.727 75.338h6.293v4.423h-12.06v-29.49h5.767v25.067ZM162.557 68.642c0-2.231.453-4.21 1.359-5.938.934-1.727 2.183-3.055 3.748-3.985 1.593-.93 3.364-1.395 5.313-1.395 1.702 0 3.185.333 4.448.997 1.291.664 2.32 1.5 3.089 2.51v-3.148h5.807V79.76h-5.807v-3.227c-.742 1.036-1.771 1.9-3.089 2.59-1.29.665-2.786.997-4.489.997-1.922 0-3.679-.479-5.272-1.435-1.565-.957-2.814-2.299-3.748-4.025-.906-1.754-1.359-3.76-1.359-6.018Zm17.957.08c0-1.355-.274-2.51-.824-3.467-.549-.983-1.29-1.727-2.223-2.232a5.985 5.985 0 0 0-3.008-.797 5.99 5.99 0 0 0-2.964.757c-.907.505-1.648 1.249-2.225 2.232-.549.956-.823 2.099-.823 3.427 0 1.329.274 2.498.823 3.507.577.983 1.318 1.74 2.225 2.272a5.895 5.895 0 0 0 2.964.797 6.225 6.225 0 0 0 3.008-.758 5.883 5.883 0 0 0 2.223-2.23c.55-.984.824-2.153.824-3.508ZM196.071 60.911c.742-1.063 1.757-1.926 3.048-2.59 1.318-.664 2.815-.997 4.489-.997 1.95 0 3.707.465 5.272 1.395 1.593.93 2.842 2.258 3.749 3.985.933 1.7 1.399 3.68 1.399 5.938 0 2.258-.466 4.264-1.399 6.018-.907 1.726-2.156 3.068-3.749 4.025-1.565.956-3.322 1.435-5.272 1.435-1.702 0-3.199-.32-4.489-.957-1.263-.664-2.278-1.514-3.048-2.55v3.147h-5.766V50.27h5.766v10.641Zm12.068 7.731c0-1.328-.288-2.47-.865-3.427-.55-.983-1.29-1.727-2.224-2.232a5.99 5.99 0 0 0-2.965-.757 5.905 5.905 0 0 0-2.966.797c-.906.505-1.647 1.249-2.224 2.232-.549.983-.824 2.139-.824 3.467 0 1.329.275 2.484.824 3.467.577.983 1.318 1.74 2.224 2.271a6.141 6.141 0 0 0 2.966.758 5.753 5.753 0 0 0 2.965-.797c.934-.532 1.674-1.289 2.224-2.272.577-.983.865-2.152.865-3.507Z"/></svg>
